src/16/actions/zoom-next.svg

<svg xmlns="http://www.w3.org/2000/svg" width="16" height="16" viewBox="0 0 16 16">
 <defs>
  <style id="current-color-scheme" type="text/css">
   .ColorScheme-Text { color:#565656; } .ColorScheme-Highlight { color:#5294e2; }
  </style>
 </defs>
 <path style="fill:currentColor" class="ColorScheme-Text" d="M 3.21875 2 C 2.54885 2 2 2.5248 2 3.1875 L 2 7 L 4 7 L 4 4 L 7 4 L 7 2 L 3.21875 2 z M 9 2 L 9 4 L 12 4 L 12 7 L 14 7 L 14 3.1875 C 14 2.5248 13.45125 2 12.78125 2 L 9 2 z M 8 5 L 8 7 L 5 7 L 5 9 L 8 9 L 8 11 L 11 8 L 8 5 z M 2 9 L 2 12.8125 C 2 13.4755 2.54895 14 3.21875 14 L 7 14 L 7 12 L 4 12 L 4 9 L 2 9 z M 12 9 L 12 12 L 9 12 L 9 14 L 12.78125 14 C 13.45125 14 14 13.4755 14 12.8125 L 14 9 L 12 9 z"/>
</svg>

<svg xmlns="http://www.w3.org/2000/svg" width="16" height="16"><defs><style id="current-color-scheme" type="text/css"></style></defs><path d="M3.219 2C2.549 2 2 2.525 2 3.188V7h2V4h3V2H3.219zM9 2v2h3v3h2V3.187C14 2.526 13.451 2 12.781 2H9zM8 5v2H5v2h3v2l3-3-3-3zM2 9v3.813C2 13.475 2.549 14 3.219 14H7v-2H4V9H2zm10 0v3H9v2h3.781c.67 0 1.219-.524 1.219-1.188V9h-2z" fill="currentColor" color="#565656"/></svg>
